; generated by Slic3r 1.2.9 on 2016-10-02 at 17:12:37

; external perimeters extrusion width = 0.60mm
; perimeters extrusion width = 0.40mm
; infill extrusion width = 0.40mm
; solid infill extrusion width = 0.40mm
; top infill extrusion width = 0.40mm

; external perimeters extrusion width = 0.60mm
; perimeters extrusion width = 0.40mm
; infill extrusion width = 0.40mm
; solid infill extrusion width = 0.40mm
; top infill extrusion width = 0.40mm

M107
M190 S55 ; set bed temperature
M104 S205 T0 ; set temperature
M104 S205 T1 ; set temperature
G28 ; home all axes
G1 Z5 F5000 ; lift nozzle


M109 S205 T0 ; wait for temperature to be reached
M109 S205 T1 ; wait for temperature to be reached
G21 ; set units to millimeters
G90 ; use absolute coordinates
M82 ; use absolute distances for extrusion
G92 E0
T0
G92 E0
G1 E-2.50000 F3600.00000
G92 E0
G1 Z0.250 F13200.000
G1 X122.622 Y71.964 F13200.000
G1 E2.50000 F3600.00000
M204 S600
G1 X124.401 Y70.310 E2.58744 F2400.000
G1 X126.618 Y69.318 E2.67488
G1 X128.500 Y69.076 E2.74319
G1 X147.010 Y69.076 E3.40952
G1 X149.406 Y69.473 E3.49696
G1 X152.252 Y71.243 E3.61762 F2400.000
G1 X178.742 Y97.658 E4.96433
G1 X180.159 Y99.632 E5.05177
G1 X180.924 Y102.916 E5.17316
G1 X180.924 Y121.500 E5.84218
G1 X180.527 Y123.896 E5.92962
G1 X179.378 Y126.036 E6.01706
G1 X177.599 Y127.690 E6.10449
G1 X175.382 Y128.682 E6.19193
G1 X173.500 Y128.924 E6.26024
G1 X128.500 Y128.924 E7.88019
G1 X126.104 Y128.527 E7.96763
G1 X123.964 Y127.378 E8.05507
G1 X122.310 Y125.599 E8.14251
G1 X121.318 Y123.382 E8.22994
G1 X121.076 Y121.500 E8.29826
G1 X121.076 Y76.500 E9.91820
G1 X121.473 Y74.104 E10.00564
G1 X122.594 Y72.017 E10.09092
M204 S1500
G1 E7.59092 F3600.00000
G92 E0
G1 X122.938 Y72.138 F13200.000
G1 E2.50000 F3600.00000
M204 S600
G1 X122.966 Y72.087 E2.50211 F2400.000
G1 X124.734 Y70.507 E2.58747
G1 X126.925 Y69.599 E2.67283
G1 X128.500 Y69.422 E2.72990
G1 X147.010 Y69.422 E3.39624
G1 X149.348 Y69.819 E3.48160
G1 X152.008 Y71.488 E3.59465 F2400.000
G1 X178.498 Y97.904 E4.94136
G1 X179.873 Y99.835 E5.02672
G1 X180.578 Y102.916 E5.14047
G1 X180.578 Y121.500 E5.80949
G1 X180.181 Y123.838 E5.89485
G1 X179.034 Y125.913 E5.98021
G1 X177.266 Y127.493 E6.06557
G1 X175.075 Y128.401 E6.15093
G1 X173.500 Y128.578 E6.20800
G1 X128.500 Y128.578 E7.82795
G1 X126.162 Y128.181 E7.91331
G1 X124.087 Y127.034 E7.99867
G1 X122.507 Y125.266 E8.08403
G1 X121.599 Y123.075 E8.16939
G1 X121.422 Y121.500 E8.22646
G1 X121.422 Y76.500 E9.84640
G1 X121.819 Y74.162 E9.93176
G1 X122.909 Y72.191 E10.01285
M204 S1500
G1 E0.01285 F3600.00000
G92 E0
T1
G92 E0
G1 E-2.50000 F3600.00000
G92 E0
G1 X123.251 Y72.317 F13200.000
G1 E2.50000 F3600.00000
M204 S600
G1 X123.310 Y72.213 E2.50428 F2400.000
G1 X125.066 Y70.710 E2.58751
G1 X127.228 Y69.890 E2.67074
G1 X128.500 Y69.768 E2.71675
G1 X147.010 Y69.768 E3.38309
G1 X149.288 Y70.165 E3.46632
G1 X151.763 Y71.733 E3.57181 F2400.000
G1 X178.253 Y98.149 E4.91853
G1 X179.586 Y100.038 E5.00176
G1 X180.232 Y102.916 E5.10792
G1 X180.232 Y121.500 E5.77693
G1 X179.835 Y123.778 E5.86016
G1 X178.690 Y125.787 E5.94339
G1 X176.934 Y127.290 E6.02662
G1 X174.772 Y128.110 E6.10985
G1 X173.500 Y128.232 E6.15587
G1 X128.500 Y128.232 E7.77581
G1 X126.222 Y127.835 E7.85904
G1 X124.213 Y126.690 E7.94227
G1 X122.710 Y124.934 E8.02550
G1 X121.890 Y122.772 E8.10873
G1 X121.768 Y121.500 E8.15475
G1 X121.768 Y76.500 E9.77469
G1 X122.165 Y74.222 E9.85792
G1 X123.221 Y72.369 E9.93471
M204 S1500
G1 E7.43471 F3600.00000
G92 E0
G1 X123.561 Y72.499 F13200.000
G1 E2.50000 F3600.00000
M204 S600
G1 X123.653 Y72.343 E2.50651 F2400.000
G1 X125.397 Y70.920 E2.58755
G1 X128.500 Y70.115 E2.70297
G1 X147.010 Y70.115 E3.36930
G1 X149.226 Y70.511 E3.45035
G1 X151.519 Y71.978 E3.54833 F2400.000
G1 X178.009 Y98.394 E4.89505
G1 X179.298 Y100.240 E4.97609
G1 X179.885 Y102.916 E5.07471
G1 X179.885 Y121.500 E5.74373
G1 X179.489 Y123.716 E5.82478
G1 X178.347 Y125.657 E5.90582
G1 X176.603 Y127.080 E5.98686
G1 X173.500 Y127.885 E6.10228
G1 X128.500 Y127.885 E7.72223
G1 X126.284 Y127.489 E7.80327
G1 X124.343 Y126.347 E7.88432
G1 X122.920 Y124.603 E7.96536
G1 X122.115 Y121.500 E8.08078
G1 X122.115 Y76.500 E9.70073
G1 X122.511 Y74.284 E9.78177
G1 X123.531 Y72.551 E9.85415
M204 S1500
G1 E-0.14585 F3600.00000
G92 E0
T0
G92 E0
G1 X123.869 Y72.686 F13200.000
G1 E10.00000 F3600.00000
M204 S600
G1 X123.996 Y72.478 E10.00880 F2400.000
G1 X125.725 Y71.136 E10.08760
G1 X128.500 Y70.461 E10.19040
G1 X147.010 Y70.461 E10.85673
G1 X149.163 Y70.858 E10.93553
G1 X151.274 Y72.224 E11.02607 F2400.000
G1 X177.764 Y98.639 E12.37278
G1 X179.008 Y100.440 E12.45158
G1 X179.539 Y102.916 E12.54271
G1 X179.539 Y121.500 E13.21173
G1 X179.142 Y123.653 E13.29053
G1 X178.004 Y125.522 E13.36933
G1 X176.275 Y126.864 E13.44813
G1 X173.500 Y127.539 E13.55093
G1 X128.500 Y127.539 E15.17087
G1 X126.347 Y127.142 E15.24967
G1 X124.478 Y126.004 E15.32847
G1 X123.136 Y124.275 E15.40727
G1 X122.461 Y121.500 E15.51007
G1 X122.461 Y76.500 E17.13002
G1 X122.858 Y74.347 E17.20881
G1 X123.837 Y72.738 E17.27665
M204 S1500
G1 E14.77665 F3600.00000
G92 E0
G1 X124.173 Y72.878 F13200.000
G1 E2.50000 F3600.00000
M204 S600
G1 X124.338 Y72.616 E2.51116 F2400.000
G1 X126.052 Y71.361 E2.58765
G1 X128.500 Y70.807 E2.67799
G1 X147.010 Y70.807 E3.34433
G1 X149.097 Y71.204 E3.42081
G1 X151.030 Y72.469 E3.50396 F2400.000
G1 X177.520 Y98.885 E4.85068
G1 X178.718 Y100.639 E4.92716
G1 X179.193 Y102.916 E5.01087
G1 X179.193 Y121.500 E5.67989
G1 X178.796 Y123.587 E5.75638
G1 X177.662 Y125.384 E5.83286
G1 X175.948 Y126.639 E5.90935
G1 X173.500 Y127.193 E5.99969
G1 X128.500 Y127.193 E7.61964
G1 X126.413 Y126.796 E7.69613
G1 X124.616 Y125.662 E7.77261
G1 X123.361 Y123.948 E7.84910
G1 X122.807 Y121.500 E7.93945
G1 X122.807 Y76.500 E9.55939
G1 X123.204 Y74.413 E9.63588
G1 X124.140 Y72.929 E9.69904
M204 S1500
G1 E-0.30096 F3600.00000
G92 E0
T1
G92 E0
G1 X124.473 Y73.075 F13200.000
G1 E10.00000 F3600.00000
M204 S600
G1 X124.680 Y72.760 E10.01360 F2400.000
G1 X126.376 Y71.594 E10.08770
G1 X128.500 Y71.154 E10.16577
G1 X147.010 Y71.154 E10.83211
G1 X149.030 Y71.550 E10.90621
G1 X150.785 Y72.714 E10.98203 F2400.000
G1 X177.275 Y99.130 E12.32875
G1 X178.426 Y100.837 E12.40285
G1 X178.846 Y102.916 E12.47920
G1 X178.846 Y121.500 E13.14822
G1 X178.450 Y123.520 E13.22233
G1 X177.320 Y125.240 E13.29643
G1 X175.624 Y126.406 E13.37053
G1 X173.500 Y126.846 E13.44860
G1 X128.500 Y126.846 E15.06855
G1 X126.480 Y126.450 E15.14265
G1 X124.760 Y125.320 E15.21675
G1 X123.594 Y123.624 E15.29085
G1 X123.154 Y121.500 E15.36893
G1 X123.154 Y76.500 E16.98888
G1 X123.550 Y74.480 E17.06298
G1 X124.440 Y73.125 E17.12132
M204 S1500
G1 E7.12132 F3600.00000
G92 E0
T0
G92 E0
G1 X137.540 Y120.954 F13200.000
G1 E10.00000 F3600.00000
M204 S600
G1 X129.046 Y120.954 E10.30576 F2400.000
G1 X129.046 Y112.460 E10.61151
G1 X137.540 Y112.460 E10.91727
G1 X137.540 Y120.894 E11.22087
M204 S1500
G1 X137.886 Y121.300 F13200.000
M204 S600
G1 X128.700 Y121.300 E11.55156 F2400.000
G1 X128.700 Y112.114 E11.88226
G1 X137.886 Y112.114 E12.21295
G1 X137.886 Y121.240 E12.54148
M204 S1500
G1 X137.540 Y121.100 F13200.000
G1 X137.339 Y112.848 F13200.000
M204 S600
G1 X137.152 Y112.661 E12.55108 F2400.000
G1 X136.658 Y112.661 E12.56902
G1 X137.339 Y113.342 E12.60399
G1 X137.339 Y113.836 E12.62193
G1 X136.164 Y112.661 E12.68227
G1 X135.670 Y112.661 E12.70021
G1 X137.339 Y114.330 E12.78592
G1 X137.339 Y114.824 E12.80386
G1 X135.176 Y112.661 E12.91493
G1 X134.682 Y112.661 E12.93287
G1 X137.339 Y115.318 E13.06932
G1 X137.339 Y115.812 E13.08726
G1 X134.188 Y112.661 E13.24908
G1 X133.694 Y112.661 E13.26702
G1 X137.339 Y116.306 E13.45420
G1 X137.339 Y116.800 E13.47214
G1 X133.200 Y112.661 E13.68470
G1 X132.706 Y112.661 E13.70264
G1 X137.339 Y117.294 E13.94056
G1 X137.339 Y117.788 E13.95850
G1 X132.212 Y112.661 E14.22180
G1 X131.717 Y112.661 E14.23974
G1 X137.339 Y118.283 E14.52840
G1 X137.339 Y118.777 E14.54634
G1 X131.223 Y112.661 E14.86038
G1 X130.729 Y112.661 E14.87832
G1 X137.339 Y119.271 E15.21772
G1 X137.339 Y119.765 E15.23566
G1 X130.235 Y112.661 E15.60043
G1 X129.741 Y112.661 E15.61837
G1 X137.339 Y120.259 E16.00852
G1 X137.319 Y120.733 E16.02575
G1 X129.267 Y112.681 E16.43920
G1 X129.247 Y113.155 E16.45643
G1 X136.845 Y120.753 E16.84658
G1 X136.351 Y120.753 E16.86451
G1 X129.247 Y113.649 E17.22929
G1 X129.247 Y114.143 E17.24723
G1 X135.857 Y120.753 E17.58663
G1 X135.363 Y120.753 E17.60457
G1 X129.247 Y114.637 E17.91860
G1 X129.247 Y115.131 E17.93654
G1 X134.869 Y120.753 E18.22521
G1 X134.375 Y120.753 E18.24314
G1 X129.247 Y115.625 E18.50644
G1 X129.247 Y116.119 E18.52438
G1 X133.881 Y120.753 E18.76230
G1 X133.387 Y120.753 E18.78024
G1 X129.247 Y116.613 E18.99280
G1 X129.247 Y117.107 E19.01074
G1 X132.893 Y120.753 E19.19792
G1 X132.398 Y120.753 E19.21586
G1 X129.247 Y117.602 E19.37768
G1 X129.247 Y118.096 E19.39562
G1 X131.904 Y120.753 E19.53206
G1 X131.410 Y120.753 E19.55000
G1 X129.247 Y118.590 E19.66108
G1 X129.247 Y119.084 E19.67902
G1 X130.916 Y120.753 E19.76472
G1 X130.422 Y120.753 E19.78266
G1 X129.247 Y119.578 E19.84300
G1 X129.247 Y120.072 E19.86094
G1 X129.928 Y120.753 E19.89591
G1 X129.434 Y120.753 E19.91385
G1 X129.247 Y120.566 E19.92344
M204 S1500
G1 E9.92344 F3600.00000
G92 E0
T1
G92 E0
G1 X138.633 Y111.367 F13200.000
G1 E10.00000 F3600.00000
M204 S600
G1 X129.046 Y111.367 E10.34509 F2400.000
G1 X129.046 Y77.046 E11.58061
G1 X146.464 Y77.046 E12.20761
G1 X146.464 Y103.462 E13.15854
G1 X172.954 Y103.462 E14.11215
G1 X172.954 Y120.954 E14.74184
G1 X138.633 Y120.954 E15.97736
G1 X138.633 Y111.427 E16.32029
M204 S1500
G1 X138.286 Y111.714 F13200.000
M204 S600
G1 X128.700 Y111.714 E16.66538 F2400.000
G1 X128.700 Y76.700 E17.92584
G1 X146.810 Y76.700 E18.57778
G1 X146.810 Y103.116 E19.52871
G1 X173.300 Y103.116 E20.48232
G1 X173.300 Y121.300 E21.13694
G1 X138.286 Y121.300 E22.39740
G1 X138.286 Y111.774 E22.74033
M204 S1500
G1 X138.286 Y111.314 F13200.000
G1 X138.833 Y111.717 F13200.000
M204 S600
G1 X147.869 Y120.753 E23.20203 F2400.000
G1 X147.378 Y120.753 E23.21979
G1 X138.833 Y112.209 E23.65637
G1 X138.833 Y112.700 E23.67413
G1 X146.886 Y120.753 E24.08559
G1 X146.394 Y120.753 E24.10335
G1 X138.833 Y113.192 E24.48969
G1 X138.833 Y113.683 E24.50745
G1 X145.903 Y120.753 E24.86867
G1 X145.411 Y120.753 E24.88643
G1 X138.833 Y114.175 E25.22254
G1 X138.833 Y114.667 E25.24030
G1 X144.920 Y120.753 E25.55128
G1 X144.428 Y120.753 E25.56904
G1 X138.833 Y115.158 E25.85490
G1 X138.833 Y115.650 E25.87266
G1 X143.936 Y120.753 E26.13341
G1 X143.445 Y120.753 E26.15117
G1 X138.833 Y116.141 E26.38679
G1 X138.833 Y116.633 E26.40455
G1 X142.953 Y120.753 E26.61506
G1 X142.462 Y120.753 E26.63282
G1 X138.833 Y117.125 E26.81820
G1 X138.833 Y117.616 E26.83597
G1 X141.970 Y120.753 E26.99623
G1 X141.478 Y120.753 E27.01399
G1 X138.833 Y118.108 E27.14914
G1 X138.833 Y118.599 E27.16690
G1 X140.987 Y120.753 E27.27693
G1 X140.495 Y120.753 E27.29469
G1 X138.833 Y119.091 E27.37959
G1 X138.833 Y119.583 E27.39736
G1 X140.004 Y120.753 E27.45714
G1 X139.512 Y120.753 E27.47490
G1 X138.833 Y120.074 E27.50957
G1 X138.833 Y120.566 E27.52733
G1 X139.020 Y120.753 E27.53688
M204 S1500
G1 E25.03688 F3600.00000
G92 E0
G1 X129.434 Y111.167 F13200.000
G1 E2.50000 F3600.00000
M204 S600
G1 X129.247 Y110.980 E2.50955 F2400.000
G1 X129.247 Y110.488 E2.52731
G1 X129.926 Y111.167 E2.56198
G1 X130.417 Y111.167 E2.57974
G1 X129.247 Y109.996 E2.63953
G1 X129.247 Y109.505 E2.65729
G1 X130.909 Y111.167 E2.74220
G1 X131.401 Y111.167 E2.75996
G1 X129.247 Y109.013 E2.86998
G1 X129.247 Y108.522 E2.88775
G1 X131.892 Y111.167 E3.02289
G1 X132.384 Y111.167 E3.04065
G1 X129.247 Y108.030 E3.20092
G1 X129.247 Y107.538 E3.21868
G1 X132.875 Y111.167 E3.40406
G1 X133.367 Y111.167 E3.42183
G1 X129.247 Y107.047 E3.63233
G1 X129.247 Y106.555 E3.65009
G1 X133.859 Y111.167 E3.88571
G1 X134.350 Y111.167 E3.90348
G1 X129.247 Y106.064 E4.16422
G1 X129.247 Y105.572 E4.18198
G1 X134.842 Y111.167 E4.46784
G1 X135.333 Y111.167 E4.48560
G1 X129.247 Y105.080 E4.79659
G1 X129.247 Y104.589 E4.81435
G1 X135.825 Y111.167 E5.15045
G1 X136.317 Y111.167 E5.16821
G1 X129.247 Y104.097 E5.52943
G1 X129.247 Y103.606 E5.54719
G1 X136.808 Y111.167 E5.93353
G1 X137.300 Y111.167 E5.95129
G1 X129.247 Y103.114 E6.36275
G1 X129.247 Y102.622 E6.38051
G1 X137.791 Y111.167 E6.81709
G1 X138.283 Y111.167 E6.83485
G1 X129.247 Y102.131 E7.29655
G1 X129.247 Y101.639 E7.31431
G1 X148.361 Y120.753 E8.29095
G1 X148.852 Y120.753 E8.30872
G1 X129.247 Y101.148 E9.31047
G1 X129.247 Y100.656 E9.32824
G1 X149.344 Y120.753 E10.35511
G1 X149.836 Y120.753 E10.37288
G1 X129.247 Y100.164 E11.42487
G1 X129.247 Y99.673 E11.44264
G1 X150.327 Y120.753 E12.51975
G1 X150.819 Y120.753 E12.53751
G1 X129.247 Y99.181 E13.63975
G1 X129.247 Y98.690 E13.65751
G1 X151.310 Y120.753 E14.78487
G1 X151.802 Y120.753 E14.80263
G1 X129.247 Y98.198 E15.95511
G1 X129.247 Y97.706 E15.97287
G1 X152.294 Y120.753 E17.15046
G1 X152.785 Y120.753 E17.16822
G1 X129.247 Y97.215 E18.37094
G1 X129.247 Y96.723 E18.38870
G1 X153.277 Y120.753 E19.61653
G1 X153.769 Y120.753 E19.63430
G1 X129.247 Y96.231 E20.88725
G1 X129.247 Y95.740 E20.90501
G1 X154.260 Y120.753 E22.18308
G1 X154.752 Y120.753 E22.20084
G1 X129.247 Y95.248 E23.50404
G1 X129.247 Y94.757 E23.52180
G1 X155.243 Y120.753 E24.85011
G1 X155.735 Y120.753 E24.86787
G1 X129.247 Y94.265 E26.22130
G1 X129.247 Y93.773 E26.23906
G1 X156.227 Y120.753 E27.61761
G1 X156.718 Y120.753 E27.63538
G1 X129.247 Y93.282 E29.03904
G1 X129.247 Y92.790 E29.05681
G1 X157.210 Y120.753 E30.48559
G1 X157.701 Y120.753 E30.50336
G1 X129.247 Y92.299 E31.95726
G1 X129.247 Y91.807 E31.97503
G1 X158.193 Y120.753 E33.45405
G1 X158.685 Y120.753 E33.47182
G1 X129.247 Y91.315 E34.97596
G1 X129.247 Y90.824 E34.99373
G1 X159.176 Y120.753 E36.52299
G1 X159.668 Y120.753 E36.54075
G1 X129.247 Y90.332 E38.09514
G1 X129.247 Y89.841 E38.11290
G1 X160.159 Y120.753 E39.69241
G1 X160.651 Y120.753 E39.71017
G1 X129.247 Y89.349 E41.31479
G1 X129.247 Y88.857 E41.33256
G1 X161.143 Y120.753 E42.96230
G1 X161.634 Y120.753 E42.98006
G1 X129.247 Y88.366 E44.63492
G1 X129.247 Y87.874 E44.65269
G1 X162.126 Y120.753 E46.33267
G1 X162.617 Y120.753 E46.35043
G1 X129.247 Y87.383 E48.05553
G1 X129.247 Y86.891 E48.07330
G1 X163.109 Y120.753 E49.80352
G1 X163.601 Y120.753 E49.82128
G1 X146.511 Y103.663 E50.69452
G1 X147.002 Y103.663 E50.71228
G1 X164.092 Y120.753 E51.58552
G1 X164.584 Y120.753 E51.60328
G1 X147.494 Y103.663 E52.47652
G1 X147.985 Y103.663 E52.49428
G1 X165.075 Y120.753 E53.36752
G1 X165.567 Y120.753 E53.38529
G1 X148.477 Y103.663 E54.25853
G1 X148.969 Y103.663 E54.27629
G1 X166.059 Y120.753 E55.14953
G1 X166.550 Y120.753 E55.16729
G1 X149.460 Y103.663 E56.04053
G1 X149.952 Y103.663 E56.05829
G1 X167.042 Y120.753 E56.93153
G1 X167.533 Y120.753 E56.94929
G1 X150.444 Y103.663 E57.82253
G1 X150.935 Y103.663 E57.84029
G1 X168.025 Y120.753 E58.71353
G1 X168.517 Y120.753 E58.73130
G1 X151.427 Y103.663 E59.60454
G1 X151.918 Y103.663 E59.62230
G1 X169.008 Y120.753 E60.49554
G1 X169.500 Y120.753 E60.51330
G1 X152.410 Y103.663 E61.38654
G1 X152.902 Y103.663 E61.40430
G1 X169.992 Y120.753 E62.27754
G1 X170.483 Y120.753 E62.29530
G1 X153.393 Y103.663 E63.16854
G1 X153.885 Y103.663 E63.18630
G1 X170.975 Y120.753 E64.05954
G1 X171.466 Y120.753 E64.07731
G1 X154.376 Y103.663 E64.95055
G1 X154.868 Y103.663 E64.96831
G1 X171.958 Y120.753 E65.84155
G1 X172.450 Y120.753 E65.85931
G1 X155.360 Y103.663 E66.73255
G1 X155.851 Y103.663 E66.75031
G1 X172.753 Y120.564 E67.61392
G1 X172.753 Y120.073 E67.63168
G1 X156.343 Y103.663 E68.47018
G1 X156.834 Y103.663 E68.48794
G1 X172.753 Y119.581 E69.30131
G1 X172.753 Y119.090 E69.31908
G1 X157.326 Y103.663 E70.10733
G1 X157.818 Y103.663 E70.12509
G1 X172.753 Y118.598 E70.88823
G1 X172.753 Y118.106 E70.90599
G1 X158.309 Y103.663 E71.64400
G1 X158.801 Y103.663 E71.66177
G1 X172.753 Y117.615 E72.37466
G1 X172.753 Y117.123 E72.39242
G1 X159.292 Y103.663 E73.08020
G1 X159.784 Y103.663 E73.09796
G1 X172.753 Y116.631 E73.76062
G1 X172.753 Y116.140 E73.77838
