; generated by Slic3r 1.2.9 on 2016-10-02 at 17:06:02

; external perimeters extrusion width = 0.50mm
; perimeters extrusion width = 0.40mm
; infill extrusion width = 0.40mm
; solid infill extrusion width = 0.40mm
; top infill extrusion width = 0.40mm

; external perimeters extrusion width = 0.50mm
; perimeters extrusion width = 0.40mm
; infill extrusion width = 0.40mm
; solid infill extrusion width = 0.40mm
; top infill extrusion width = 0.40mm

M107
M190 S55 ; set bed temperature
M104 S205 T0 ; set temperature
M104 S205 T1 ; set temperature
G28 ; home all axes
G1 Z5 F5000 ; lift nozzle


M109 S205 T0 ; wait for temperature to be reached
M109 S205 T1 ; wait for temperature to be reached
G21 ; set units to millimeters
G90 ; use absolute coordinates
M82 ; use absolute distances for extrusion
G92 E0
T0
G92 E0
G1 E-2.50000 F3600.00000
G92 E0
G1 Z0.250 F13200.000
G1 X48.381 Y52.013 F13200.000
G1 E2.50000 F3600.00000
M204 S600
G1 X49.537 Y50.938 E2.55683 F2400.000
G1 X51.754 Y49.946 E2.64427
G1 X53.636 Y49.704 E2.71258
G1 X72.146 Y49.704 E3.37891
G1 X74.542 Y50.101 E3.46635
G1 X77.388 Y51.871 E3.58701 F2400.000
G1 X103.878 Y78.287 E4.93372
G1 X105.295 Y80.260 E5.02116
G1 X106.060 Y83.544 E5.14255
G1 X106.060 Y102.128 E5.81157
G1 X105.663 Y104.524 E5.89901
G1 X104.514 Y106.664 E5.98645
G1 X102.735 Y108.318 E6.07389
G1 X100.518 Y109.310 E6.16132
G1 X98.636 Y109.553 E6.22964
G1 X53.636 Y109.553 E7.84958
G1 X51.240 Y109.155 E7.93702
G1 X49.100 Y108.006 E8.02446
G1 X47.446 Y106.228 E8.11190
G1 X46.454 Y104.010 E8.19933
G1 X46.212 Y102.128 E8.26765
G1 X46.212 Y57.128 E9.88760
G1 X46.609 Y54.732 E9.97503
G1 X47.758 Y52.592 E10.06247
G1 X48.337 Y52.054 E10.09092
M204 S1500
G1 E7.59092 F3600.00000
G92 E0
G1 X48.606 Y52.265 F13200.000
G1 E2.50000 F3600.00000
M204 S600
G1 X49.870 Y51.135 E2.56104 F2400.000
G1 X52.061 Y50.228 E2.64640
G1 X53.636 Y50.050 E2.70346
G1 X72.146 Y50.050 E3.36980
G1 X74.484 Y50.447 E3.45516
G1 X77.144 Y52.116 E3.56821 F2400.000
G1 X103.634 Y78.532 E4.91493
G1 X105.009 Y80.464 E5.00028
G1 X105.714 Y83.544 E5.11404
G1 X105.714 Y102.128 E5.78306
G1 X105.317 Y104.466 E5.86842
G1 X104.170 Y106.541 E5.95377
G1 X102.402 Y108.121 E6.03913
G1 X100.211 Y109.029 E6.12449
G1 X98.636 Y109.206 E6.18156
G1 X53.636 Y109.206 E7.80151
G1 X51.298 Y108.809 E7.88687
G1 X49.223 Y107.662 E7.97223
G1 X47.643 Y105.894 E8.05759
G1 X46.735 Y103.704 E8.14295
G1 X46.558 Y102.128 E8.20002
G1 X46.558 Y57.128 E9.81997
G1 X46.955 Y54.791 E9.90533
G1 X48.102 Y52.715 E9.99069
G1 X48.561 Y52.305 E10.01285
M204 S1500
G1 E0.01285 F3600.00000
G92 E0
T1
G92 E0
G1 E-2.50000 F3600.00000
G92 E0
G1 X48.823 Y52.519 F13200.000
G1 E2.50000 F3600.00000
M204 S600
G1 X50.202 Y51.338 E2.56535 F2400.000
G1 X52.364 Y50.518 E2.64858
G1 X53.636 Y50.397 E2.69459
G1 X72.146 Y50.397 E3.36093
G1 X74.424 Y50.794 E3.44416
G1 X76.899 Y52.362 E3.54965 F2400.000
G1 X103.389 Y78.777 E4.89636
G1 X104.722 Y80.666 E4.97959
G1 X105.368 Y83.544 E5.08575
G1 X105.368 Y102.128 E5.75477
G1 X104.971 Y104.406 E5.83800
G1 X103.826 Y106.415 E5.92123
G1 X102.070 Y107.918 E6.00446
G1 X99.908 Y108.739 E6.08769
G1 X98.636 Y108.860 E6.13370
G1 X53.636 Y108.860 E7.75365
G1 X51.358 Y108.463 E7.83688
G1 X49.349 Y107.319 E7.92011
G1 X47.846 Y105.562 E8.00334
G1 X47.026 Y103.401 E8.08657
G1 X46.904 Y102.128 E8.13258
G1 X46.904 Y57.128 E9.75253
G1 X47.301 Y54.851 E9.83576
G1 X48.446 Y52.842 E9.91899
G1 X48.777 Y52.558 E9.93471
M204 S1500
G1 E7.43471 F3600.00000
G92 E0
G1 X49.031 Y52.774 F13200.000
G1 E2.50000 F3600.00000
M204 S600
G1 X50.533 Y51.548 E2.56978 F2400.000
G1 X53.636 Y50.743 E2.68519
G1 X72.146 Y50.743 E3.35153
G1 X74.362 Y51.140 E3.43257
G1 X76.655 Y52.607 E3.53056 F2400.000
G1 X103.145 Y79.022 E4.87727
G1 X104.434 Y80.868 E4.95832
G1 X105.021 Y83.544 E5.05694
G1 X105.021 Y102.128 E5.72596
G1 X104.625 Y104.344 E5.80700
G1 X103.483 Y106.285 E5.88805
G1 X101.739 Y107.709 E5.96909
G1 X98.636 Y108.514 E6.08451
G1 X53.636 Y108.514 E7.70445
G1 X51.420 Y108.117 E7.78550
G1 X49.479 Y106.976 E7.86654
G1 X48.055 Y105.232 E7.94759
G1 X47.251 Y102.128 E8.06300
G1 X47.251 Y57.128 E9.68295
G1 X47.647 Y54.912 E9.76400
G1 X48.789 Y52.972 E9.84504
G1 X48.985 Y52.812 E9.85415
M204 S1500
G1 E-0.14585 F3600.00000
G92 E0
T0
G92 E0
G1 X49.230 Y53.030 F13200.000
G1 E10.00000 F3600.00000
M204 S600
G1 X50.861 Y51.764 E10.07433 F2400.000
G1 X53.636 Y51.089 E10.17713
G1 X72.146 Y51.089 E10.84346
G1 X74.299 Y51.486 E10.92226
G1 X76.410 Y52.852 E11.01280 F2400.000
G1 X102.900 Y79.268 E12.35951
G1 X104.144 Y81.068 E12.43831
G1 X104.675 Y83.544 E12.52945
G1 X104.675 Y102.128 E13.19846
G1 X104.278 Y104.281 E13.27726
G1 X103.140 Y106.151 E13.35606
G1 X101.411 Y107.492 E13.43486
G1 X98.636 Y108.167 E13.53766
G1 X53.636 Y108.167 E15.15761
G1 X51.483 Y107.771 E15.23640
G1 X49.614 Y106.633 E15.31520
G1 X48.272 Y104.903 E15.39400
G1 X47.597 Y102.128 E15.49680
G1 X47.597 Y57.128 E17.11675
G1 X47.994 Y54.976 E17.19555
G1 X49.132 Y53.106 E17.27434
G1 X49.182 Y53.066 E17.27665
M204 S1500
G1 E14.77665 F3600.00000
G92 E0
G1 X49.474 Y53.244 F13200.000
G1 E2.50000 F3600.00000
M204 S600
G1 X51.188 Y51.989 E2.57649 F2400.000
G1 X53.636 Y51.436 E2.66683
G1 X72.146 Y51.436 E3.33317
G1 X74.233 Y51.832 E3.40965
G1 X76.166 Y53.097 E3.49280 F2400.000
G1 X102.656 Y79.513 E4.83951
G1 X103.854 Y81.267 E4.91600
G1 X104.329 Y83.544 E4.99971
G1 X104.329 Y102.128 E5.66873
G1 X103.932 Y104.216 E5.74522
G1 X102.798 Y106.012 E5.82170
G1 X101.084 Y107.268 E5.89819
G1 X98.636 Y107.821 E5.98853
G1 X53.636 Y107.821 E7.60848
G1 X51.549 Y107.424 E7.68497
G1 X49.752 Y106.290 E7.76145
G1 X48.497 Y104.576 E7.83794
G1 X47.943 Y102.128 E7.92829
G1 X47.943 Y57.128 E9.54823
G1 X48.340 Y55.041 E9.62472
G1 X49.442 Y53.295 E9.69904
M204 S1500
G1 E-0.30096 F3600.00000
G92 E0
T1
G92 E0
G1 X49.779 Y53.445 F13200.000
G1 E10.00000 F3600.00000
M204 S600
G1 X49.816 Y53.388 E10.00244 F2400.000
G1 X51.512 Y52.222 E10.07654
G1 X53.636 Y51.782 E10.15462
G1 X72.146 Y51.782 E10.82095
G1 X74.166 Y52.178 E10.89505
G1 X75.921 Y53.343 E10.97087 F2400.000
G1 X102.411 Y79.758 E12.31759
G1 X103.562 Y81.465 E12.39169
G1 X103.982 Y83.544 E12.46805
G1 X103.982 Y102.128 E13.13707
G1 X103.586 Y104.148 E13.21117
G1 X102.456 Y105.869 E13.28527
G1 X100.760 Y107.035 E13.35937
G1 X98.636 Y107.475 E13.43744
G1 X53.636 Y107.475 E15.05739
G1 X51.616 Y107.078 E15.13149
G1 X49.896 Y105.948 E15.20559
G1 X48.730 Y104.252 E15.27969
G1 X48.290 Y102.128 E15.35777
G1 X48.290 Y57.128 E16.97772
G1 X48.686 Y55.108 E17.05182
G1 X49.746 Y53.495 E17.12132
M204 S1500
G1 E14.62132 F3600.00000
G92 E0
G1 X71.600 Y84.090 F13200.000
G1 E2.50000 F3600.00000
M204 S600
G1 X98.090 Y84.090 E3.45361 F2400.000
G1 X98.090 Y101.582 E4.08330
G1 X63.769 Y101.582 E5.31882
G1 X63.769 Y91.996 E5.66391
G1 X54.182 Y91.996 E6.00900
G1 X54.182 Y57.675 E7.24452
G1 X71.600 Y57.675 E7.87152
G1 X71.600 Y84.030 E8.82029
M204 S1500
G1 X71.946 Y83.744 F13200.000
M204 S600
G1 X98.436 Y83.744 E9.77391 F2400.000
G1 X98.436 Y101.928 E10.42853
G1 X63.422 Y101.928 E11.68898
G1 X63.422 Y92.342 E12.03408
G1 X53.836 Y92.342 E12.37917
G1 X53.836 Y57.328 E13.63963
G1 X71.946 Y57.328 E14.29156
G1 X71.946 Y83.684 E15.24033
M204 S1500
G1 X71.946 Y84.144 F13200.000
G1 X71.399 Y84.043 F13200.000
M204 S600
G1 X54.383 Y67.028 E16.10976 F2400.000
G1 X54.383 Y66.536 E16.12752
G1 X71.399 Y83.551 E16.99695
G1 X71.399 Y83.060 E17.01471
G1 X54.383 Y66.044 E17.88414
G1 X54.383 Y65.553 E17.90190
G1 X71.399 Y82.568 E18.77133
G1 X71.399 Y82.077 E18.78909
G1 X54.383 Y65.061 E19.65852
G1 X54.383 Y64.570 E19.67628
G1 X71.399 Y81.585 E20.54571
G1 X71.399 Y81.093 E20.56347
G1 X54.383 Y64.078 E21.43290
G1 X54.383 Y63.586 E21.45066
G1 X71.399 Y80.602 E22.32009
G1 X71.399 Y80.110 E22.33785
G1 X54.383 Y63.095 E23.20728
G1 X54.383 Y62.603 E23.22504
G1 X71.399 Y79.619 E24.09447
G1 X71.399 Y79.127 E24.11223
G1 X54.383 Y62.112 E24.98166
G1 X54.383 Y61.620 E24.99942
G1 X71.399 Y78.635 E25.86885
G1 X71.399 Y78.144 E25.88661
G1 X54.383 Y61.128 E26.75604
G1 X54.383 Y60.637 E26.77380
G1 X71.399 Y77.652 E27.64323
G1 X71.399 Y77.161 E27.66099
G1 X54.383 Y60.145 E28.53042
G1 X54.383 Y59.654 E28.54818
G1 X71.399 Y76.669 E29.41761
G1 X71.399 Y76.177 E29.43538
G1 X54.383 Y59.162 E30.30480
G1 X54.383 Y58.670 E30.32257
G1 X71.399 Y75.686 E31.19199
G1 X71.399 Y75.194 E31.20976
G1 X54.383 Y58.179 E32.07918
G1 X54.572 Y57.876 E32.09208
G1 X71.399 Y74.702 E32.95188
G1 X71.399 Y74.211 E32.96964
G1 X55.063 Y57.876 E33.80433
G1 X55.555 Y57.876 E33.82209
G1 X71.399 Y73.719 E34.63165
G1 X71.399 Y73.228 E34.64941
G1 X56.046 Y57.876 E35.43385
G1 X56.538 Y57.876 E35.45162
G1 X71.399 Y72.736 E36.21094
G1 X71.399 Y72.244 E36.22870
G1 X57.030 Y57.876 E36.96291
G1 X57.521 Y57.876 E36.98067
G1 X71.399 Y71.753 E37.68975
G1 X71.399 Y71.261 E37.70751
G1 X58.013 Y57.876 E38.39148
G1 X58.505 Y57.876 E38.40924
G1 X71.399 Y70.770 E39.06809
G1 X71.399 Y70.278 E39.08585
G1 X58.996 Y57.876 E39.71958
G1 X59.488 Y57.876 E39.73734
G1 X71.399 Y69.786 E40.34594
G1 X71.399 Y69.295 E40.36371
G1 X59.979 Y57.876 E40.94719
G1 X60.471 Y57.876 E40.96496
G1 X71.399 Y68.803 E41.52332
G1 X71.399 Y68.312 E41.54109
G1 X60.963 Y57.876 E42.07433
G1 X61.454 Y57.876 E42.09210
G1 X71.399 Y67.820 E42.60023
G1 X71.399 Y67.328 E42.61799
G1 X61.946 Y57.876 E43.10100
G1 X62.437 Y57.876 E43.11876
G1 X71.399 Y66.837 E43.57665
G1 X71.399 Y66.345 E43.59441
G1 X62.929 Y57.876 E44.02718
G1 X63.421 Y57.876 E44.04494
G1 X71.399 Y65.854 E44.45260
G1 X71.399 Y65.362 E44.47036
G1 X63.912 Y57.876 E44.85289
G1 X64.404 Y57.876 E44.87065
G1 X71.399 Y64.870 E45.22806
G1 X71.399 Y64.379 E45.24583
G1 X64.895 Y57.876 E45.57812
G1 X65.387 Y57.876 E45.59588
G1 X71.399 Y63.887 E45.90306
G1 X71.399 Y63.396 E45.92082
G1 X65.879 Y57.876 E46.20287
G1 X66.370 Y57.876 E46.22063
G1 X71.399 Y62.904 E46.47757
G1 X71.399 Y62.412 E46.49533
G1 X66.862 Y57.876 E46.72715
G1 X67.353 Y57.876 E46.74491
G1 X71.399 Y61.921 E46.95161
G1 X71.399 Y61.429 E46.96937
G1 X67.845 Y57.876 E47.15094
G1 X68.337 Y57.876 E47.16871
G1 X71.399 Y60.938 E47.32516
G1 X71.399 Y60.446 E47.34293
G1 X68.828 Y57.876 E47.47426
G1 X69.320 Y57.876 E47.49203
G1 X71.399 Y59.954 E47.59824
G1 X71.399 Y59.463 E47.61601
G1 X69.811 Y57.876 E47.69711
G1 X70.303 Y57.876 E47.71487
G1 X71.399 Y58.971 E47.77085
G1 X71.399 Y58.479 E47.78861
G1 X70.795 Y57.876 E47.81947
M204 S1500
G1 X63.969 Y92.345 F13200.000
M204 S600
G1 X73.005 Y101.381 E48.28117 F2400.000
G1 X72.514 Y101.381 E48.29893
G1 X63.969 Y92.837 E48.73551
G1 X63.969 Y93.328 E48.75327
G1 X72.022 Y101.381 E49.16473
G1 X71.530 Y101.381 E49.18249
G1 X63.969 Y93.820 E49.56883
G1 X63.969 Y94.312 E49.58659
G1 X71.039 Y101.381 E49.94781
G1 X70.547 Y101.381 E49.96557
G1 X63.969 Y94.803 E50.30167
G1 X63.969 Y95.295 E50.31944
G1 X70.056 Y101.381 E50.63042
G1 X69.564 Y101.381 E50.64818
G1 X63.969 Y95.786 E50.93404
G1 X63.969 Y96.278 E50.95180
G1 X69.072 Y101.381 E51.21255
G1 X68.581 Y101.381 E51.23031
G1 X63.969 Y96.770 E51.46593
G1 X63.969 Y97.261 E51.48369
G1 X68.089 Y101.381 E51.69420
G1 X67.598 Y101.381 E51.71196
G1 X63.969 Y97.753 E51.89734
G1 X63.969 Y98.245 E51.91510
G1 X67.106 Y101.381 E52.07537
G1 X66.614 Y101.381 E52.09313
G1 X63.969 Y98.736 E52.22828
G1 X63.969 Y99.228 E52.24604
G1 X66.123 Y101.381 E52.35606
G1 X65.631 Y101.381 E52.37383
G1 X63.969 Y99.719 E52.45873
G1 X63.969 Y100.211 E52.47649
G1 X65.140 Y101.381 E52.53628
G1 X64.648 Y101.381 E52.55404
G1 X63.969 Y100.703 E52.58871
G1 X63.969 Y101.194 E52.60647
G1 X64.156 Y101.381 E52.61602
M204 S1500
G1 E50.11602 F3600.00000
G92 E0
G1 X54.570 Y91.795 F13200.000
G1 E2.50000 F3600.00000
M204 S600
G1 X54.383 Y91.608 E2.50955 F2400.000
G1 X54.383 Y91.116 E2.52731
G1 X55.062 Y91.795 E2.56198
G1 X55.553 Y91.795 E2.57974
G1 X54.383 Y90.625 E2.63953
G1 X54.383 Y90.133 E2.65729
G1 X56.045 Y91.795 E2.74220
G1 X56.537 Y91.795 E2.75996
G1 X54.383 Y89.642 E2.86998
G1 X54.383 Y89.150 E2.88775
G1 X57.028 Y91.795 E3.02289
G1 X57.520 Y91.795 E3.04065
G1 X54.383 Y88.658 E3.20092
G1 X54.383 Y88.167 E3.21868
G1 X58.011 Y91.795 E3.40406
G1 X58.503 Y91.795 E3.42183
G1 X54.383 Y87.675 E3.63233
G1 X54.383 Y87.183 E3.65009
G1 X58.995 Y91.795 E3.88571
G1 X59.486 Y91.795 E3.90348
G1 X54.383 Y86.692 E4.16422
G1 X54.383 Y86.200 E4.18198
G1 X59.978 Y91.795 E4.46784
G1 X60.469 Y91.795 E4.48560
G1 X54.383 Y85.709 E4.79659
G1 X54.383 Y85.217 E4.81435
G1 X60.961 Y91.795 E5.15045
G1 X61.453 Y91.795 E5.16821
G1 X54.383 Y84.725 E5.52943
G1 X54.383 Y84.234 E5.54719
G1 X61.944 Y91.795 E5.93353
G1 X62.436 Y91.795 E5.95129
G1 X54.383 Y83.742 E6.36275
G1 X54.383 Y83.251 E6.38051
G1 X62.927 Y91.795 E6.81709
G1 X63.419 Y91.795 E6.83485
G1 X54.383 Y82.759 E7.29655
G1 X54.383 Y82.267 E7.31431
G1 X73.497 Y101.381 E8.29095
G1 X73.988 Y101.381 E8.30872
G1 X54.383 Y81.776 E9.31047
G1 X54.383 Y81.284 E9.32824
G1 X74.480 Y101.381 E10.35511
G1 X74.972 Y101.381 E10.37288
G1 X54.383 Y80.793 E11.42487
G1 X54.383 Y80.301 E11.44264
G1 X75.463 Y101.381 E12.51975
G1 X75.955 Y101.381 E12.53751
G1 X54.383 Y79.809 E13.63975
G1 X54.383 Y79.318 E13.65751
G1 X76.446 Y101.381 E14.78487
G1 X76.938 Y101.381 E14.80263
G1 X54.383 Y78.826 E15.95511
G1 X54.383 Y78.335 E15.97287
G1 X77.430 Y101.381 E17.15046
G1 X77.921 Y101.381 E17.16822
G1 X54.383 Y77.843 E18.37094
G1 X54.383 Y77.351 E18.38870
G1 X78.413 Y101.381 E19.61653
G1 X78.904 Y101.381 E19.63430
G1 X54.383 Y76.860 E20.88725
G1 X54.383 Y76.368 E20.90501
G1 X79.396 Y101.381 E22.18308
G1 X79.888 Y101.381 E22.20084
G1 X54.383 Y75.877 E23.50404
G1 X54.383 Y75.385 E23.52180
G1 X80.379 Y101.381 E24.85011
G1 X80.871 Y101.381 E24.86787
G1 X54.383 Y74.893 E26.22130
G1 X54.383 Y74.402 E26.23906
G1 X81.363 Y101.381 E27.61761
G1 X81.854 Y101.381 E27.63538
G1 X54.383 Y73.910 E29.03904
G1 X54.383 Y73.419 E29.05681
G1 X82.346 Y101.381 E30.48559
G1 X82.837 Y101.381 E30.50336
G1 X54.383 Y72.927 E31.95726
G1 X54.383 Y72.435 E31.97503
G1 X83.329 Y101.381 E33.45405
G1 X83.821 Y101.381 E33.47182
G1 X54.383 Y71.944 E34.97596
G1 X54.383 Y71.452 E34.99373
G1 X84.312 Y101.381 E36.52299
G1 X84.804 Y101.381 E36.54075
G1 X54.383 Y70.960 E38.09514
G1 X54.383 Y70.469 E38.11290
G1 X85.295 Y101.381 E39.69241
G1 X85.787 Y101.381 E39.71017
G1 X54.383 Y69.977 E41.31479
G1 X54.383 Y69.486 E41.33256
G1 X86.279 Y101.381 E42.96230
G1 X86.770 Y101.381 E42.98006
G1 X54.383 Y68.994 E44.63492
G1 X54.383 Y68.502 E44.65269
G1 X87.262 Y101.381 E46.33267
G1 X87.753 Y101.381 E46.35043
G1 X54.383 Y68.011 E48.05553
G1 X54.383 Y67.519 E48.07330
G1 X88.245 Y101.381 E49.80352
G1 X88.737 Y101.381 E49.82128
G1 X71.647 Y84.291 E50.69452
G1 X72.138 Y84.291 E50.71228
G1 X89.228 Y101.381 E51.58552
G1 X89.720 Y101.381 E51.60328
G1 X72.630 Y84.291 E52.47652
G1 X73.121 Y84.291 E52.49428
G1 X90.211 Y101.381 E53.36752
G1 X90.703 Y101.381 E53.38529
G1 X73.613 Y84.291 E54.25853
G1 X74.105 Y84.291 E54.27629
G1 X91.195 Y101.381 E55.14953
G1 X91.686 Y101.381 E55.16729
G1 X74.596 Y84.291 E56.04053
G1 X75.088 Y84.291 E56.05829
G1 X92.178 Y101.381 E56.93153
G1 X92.669 Y101.381 E56.94929
G1 X75.580 Y84.291 E57.82253
G1 X76.071 Y84.291 E57.84029
G1 X93.161 Y101.381 E58.71353
G1 X93.653 Y101.381 E58.73130
G1 X76.563 Y84.291 E59.60454
G1 X77.054 Y84.291 E59.62230
G1 X94.144 Y101.381 E60.49554
G1 X94.636 Y101.381 E60.51330
G1 X77.546 Y84.291 E61.38654
G1 X78.038 Y84.291 E61.40430
G1 X95.128 Y101.381 E62.27754
G1 X95.619 Y101.381 E62.29530
G1 X78.529 Y84.291 E63.16854
G1 X79.021 Y84.291 E63.18630
G1 X96.111 Y101.381 E64.05954
G1 X96.602 Y101.381 E64.07731
G1 X79.512 Y84.291 E64.95055
G1 X80.004 Y84.291 E64.96831
G1 X97.094 Y101.381 E65.84155
G1 X97.586 Y101.381 E65.85931
G1 X80.496 Y84.291 E66.73255
G1 X80.987 Y84.291 E66.75031
G1 X97.889 Y101.193 E67.61392
G1 X97.889 Y100.701 E67.63168
G1 X81.479 Y84.291 E68.47018
G1 X81.970 Y84.291 E68.48794
G1 X97.889 Y100.209 E69.30131
G1 X97.889 Y99.718 E69.31908
G1 X82.462 Y84.291 E70.10733
G1 X82.954 Y84.291 E70.12509
G1 X97.889 Y99.226 E70.88823
G1 X97.889 Y98.735 E70.90599
G1 X83.445 Y84.291 E71.64400
G1 X83.937 Y84.291 E71.66177
G1 X97.889 Y98.243 E72.37466
G1 X97.889 Y97.751 E72.39242
G1 X84.428 Y84.291 E73.08020
